X: 1109
T: Hüseynî Seyir
C: Şefik Gürmeriç
O: Turkey
F: http://compmusic.upf.edu/node/140
N: huseyni--seyir--sofyan--1--sefik_gurmeric
N: makam= huseyni
N: form= seyir
N: usul= sofyan = 4/4
M: 4/4
L: 1/16
K: C _2/4B ^3/4f  
Q: 1/4=60
%%MIDI tuningsystem comma53
A8 e2d2 c2d2  | e8 egfe d4  | e2f2 g2a2 =b2a2 a2g2  | \
w:   |   |   | 
g3f gffe e8  | 
w:   | 
d4 e4 e4 a4  | e6d2 e3d c4  | d2e2 f2a2 g2=f2 e2d2  | \
w:   |   |   | 
e3d c2B2 c8  | 
w:   | 
z4 B2c2 d4 e4  | d2c4B2 B3A G4  | A2B2 c2d2 e2d2 d2c2  | \
w:   |   |   | 
c3B cBBA A8  | 
w:   | 
|


